X:7
T:Hils fra meg til Hjemme (vals)
T:("Greet Them at Home")
R:vals
C:Elith Worsing music, Ch. Bengtsson text, LeRoy Larson transl.
Z:2004 Brian Wilson <Brian.Wilson@alumni.brown.edu>
M:3/4
L:1/4
Q:1/4=210
W:I den sto-re tau-se natt, står jeg har ved ski-bots ratt,
W:Un-der him-lens stjer-ne-vell, en-e og for latt.
W:Un-der him-lens hø-le tak, hø-res fjer-ne ring-es-lag;
W:Fug-le-trek-ket at-ter går mot nord, mot ly-se vår
W:
W:Hils fra mig der hjem-me, Hils min far og mor
W:Hils de grø-ne li-er, og den bla-nke fjord
W:Hvis jeg had-de vin-ger, fjøl jeg hjem med dig
W:til de ly-sa not-ter, Hils dem, Hils fra mig.
K:C
P:Verse
|| "C"G2 A | "G+"G2 A | "C"G2 F | "C"E3
| "F"c2 d | "C+"c2 d | "F"c2 B | "F"A3
| "F"c2 A | "G7"G2 F | "C"E2 F | "A7"G3
| "D"G2 G | "Dm"F2 E | "G7"D3- | D3
| "C"G2 A | "G+"G2 A | "C"G2 F | "C"E3
| "F"c2 d | "C+"c2 d | "F"c2 B | "F"A3
| "F"A2 B | "F#dim"c2 d | "C"e2 c | "A7"G2 E
| "Dm"G2 F | "G7"E2 D | "C"C3- | C3 |
P:Chorus
| "C"c2 c | "C"B2 B | "F"A3 | "Dm"F3
| "G7"B2 B | "G7"A2 A | "C"G3- | G3
| "A7"A2 A | "A7"G2 G | "Dm"F3 | "Dm"D3
| "G7"G2 G | "G7"F2 F | "C"E3- | E3
| "C"c2 c | "C7"e2 e | "F"d3 | "F"A3
| "G7"B2 B | "E7"d2 d | "Am"c3- | "Ab"c3
| "C"C2 C | "C7"G2 G | "F"B3 | "Dm"A3
| "G7"G2 G | "G7"A2 B | "C"c3- | c3 ||
